static/characters/chotto_toorimasu_yo/front-standing.svg

<svg height="182" width="160" xmlns="http://www.w3.org/2000/svg" xml:space="preserve" style="fill-rule:evenodd;clip-rule:evenodd;stroke-linejoin:round;stroke-miterlimit:1.5"><path d="M54.321 129.148c-1.361-5.864-.447-11.59 1.895-17.117 4.077-14.487 8.128-29.005 14.254-41.102 21.466-26.615 53.023 1.206 51.938 20.954-3.541 7.204-6.667 13.699-12.299 21.805-.262.376-2.373 1.881-2.431 6.182-.059 4.456.696 11.303.859 15.468-.73 8.395-7.227 7.138-7.774 0l-36.501.534c-1.084 7.341-6.398 6.94-8.865 3.263-1.578-2.353-1.788-6.253-1.076-9.987Z" style="fill:#fff"/><path d="M66.35 79.808c.71-1.167 3.322-7.798 4.068-8.808 21.659-29.336 57.466 5.935 51.283 22.727-.373 1.012-13.868 23.861-14.558 24.72m-52.822 8.221c.362 5.416-.312 10.082 1.076 12.158m0 0c2.914 4.355 8.198 1.864 8.233-1.698m2.72-1.256 32.634-.209m9.414-10.773c.043 4.275.29 10.197 0 12.238-.782 5.509-7.633 4.766-7.635-1.256" style="fill:none;stroke:#000;stroke-width:2.5px"/><path d="m52.623 119.075 5.283-16.65 2.59-.026-5.282 16.65zm6.485-20.815 5.283-16.65 2.59-.026-5.282 16.65zm42.491-15c1.906 3.603 4.355 5.937 6.938 8.863l-5.972 1.806-.966-.942L104.741 91c-2.098-2.163-3.536-4.897-4.546-7.74h1.404Zm10.198-2.776 1.622 2.776 1.569-1.569-1.569-1.731-1.622.524Zm-20.376-.524H89.01l-1.772 3.3h1.772l2.412-3.3Zm1.915 16.165 4.393-.104v2.213h-4.393v-2.109Z"/></svg>

<?xml version="1.0" encoding="UTF-8" standalone="no"?>
<!DOCTYPE svg PUBLIC "-//W3C//DTD SVG 1.1//EN" "http://www.w3.org/Graphics/SVG/1.1/DTD/svg11.dtd">
<svg height="182" width="160" viewBox="0 0 160 182" version="1.1" xmlns="http://www.w3.org/2000/svg" xmlns:xlink="http://www.w3.org/1999/xlink" xml:space="preserve" xmlns:serif="http://www.serif.com/" style="fill-rule:evenodd;clip-rule:evenodd;stroke-linejoin:round;stroke-miterlimit:1.5;">
    <g>
        <path d="M54.321,129.148C52.96,123.284 53.874,117.558 56.216,112.031C60.293,97.544 64.344,83.026 70.47,70.929C91.936,44.314 123.493,72.135 122.408,91.883C118.867,99.087 115.741,105.582 110.109,113.688C109.847,114.064 107.736,115.569 107.678,119.87C107.619,124.326 108.374,131.173 108.537,135.338C107.807,143.733 101.31,142.476 100.763,135.338L64.262,135.872C63.178,143.213 57.864,142.812 55.397,139.135C53.819,136.782 53.609,132.882 54.321,129.148Z" style="fill:white;"/>
        <path d="M66.35,79.808C67.06,78.641 69.672,72.01 70.418,71C92.077,41.664 127.884,76.935 121.701,93.727C121.328,94.739 107.833,117.588 107.143,118.447" style="fill:none;stroke:black;stroke-width:2.5px;"/>
        <path d="M54.321,126.668C54.683,132.084 54.009,136.75 55.397,138.826" style="fill:none;stroke:black;stroke-width:2.5px;"/>
        <path d="M55.397,138.826C58.311,143.181 63.595,140.69 63.63,137.128" style="fill:none;stroke:black;stroke-width:2.5px;"/>
        <path d="M66.35,135.872L98.984,135.663" style="fill:none;stroke:black;stroke-width:2.5px;"/>
        <path d="M108.398,124.89C108.441,129.165 108.688,135.087 108.398,137.128C107.616,142.637 100.765,141.894 100.763,135.872" style="fill:none;stroke:black;stroke-width:2.5px;"/>
        <g transform="matrix(0.302405,-0.953179,1.12606,-0.0112691,-47.0263,138.591)">
            <rect x="19.49" y="83.26" width="17.468" height="2.301"/>
        </g>
        <g transform="matrix(0.302405,-0.953179,1.12606,-0.0112691,-40.5412,117.776)">
            <rect x="19.49" y="83.26" width="17.468" height="2.301"/>
        </g>
        <path d="M101.599,83.26C103.505,86.863 105.954,89.197 108.537,92.123L102.565,93.929L101.599,92.987L104.741,91C102.643,88.837 101.205,86.103 100.195,83.26L101.599,83.26Z"/>
        <path d="M111.797,80.484L113.419,83.26L114.988,81.691L113.419,79.96L111.797,80.484Z"/>
        <g transform="matrix(1,0,0,1,1.11847,0)">
            <path d="M90.303,79.96L87.891,79.96L86.119,83.26L87.891,83.26L90.303,79.96Z"/>
        </g>
        <path d="M93.336,96.125L97.729,96.021L97.729,98.234L93.336,98.234L93.336,96.125Z"/>
    </g>
</svg>
